images/initLogo.svg

<?xml version="1.0" encoding="UTF-8" standalone="no"?>
<svg
   xmlns:dc="http://purl.org/dc/elements/1.1/"
   xmlns:cc="http://creativecommons.org/ns#"
   xmlns:rdf="http://www.w3.org/1999/02/22-rdf-syntax-ns#"
   xmlns:svg="http://www.w3.org/2000/svg"
   xmlns="http://www.w3.org/2000/svg"
   xmlns:sodipodi="http://sodipodi.sourceforge.net/DTD/sodipodi-0.dtd"
   xmlns:inkscape="http://www.inkscape.org/namespaces/inkscape"
   id="svg"
   version="1.1"
   width="30"
   height="30"
   viewBox="0 0 30 30"
   sodipodi:docname="initLogo.svg"
   inkscape:version="1.0.2 (e86c870879, 2021-01-15)">
  <metadata
     id="metadata9">
    <rdf:RDF>
      <cc:Work
         rdf:about="">
        <dc:format>image/svg+xml</dc:format>
        <dc:type
           rdf:resource="http://purl.org/dc/dcmitype/StillImage" />
      </cc:Work>
    </rdf:RDF>
  </metadata>
  <defs
     id="defs7" />
  <sodipodi:namedview
     pagecolor="#ffffff"
     bordercolor="#666666"
     borderopacity="1"
     objecttolerance="10"
     gridtolerance="10"
     guidetolerance="10"
     inkscape:pageopacity="0"
     inkscape:pageshadow="2"
     inkscape:window-width="1920"
     inkscape:window-height="1017"
     id="namedview5"
     showgrid="false"
     inkscape:zoom="1.345"
     inkscape:cx="45.883282"
     inkscape:cy="68.398163"
     inkscape:window-x="1358"
     inkscape:window-y="-8"
     inkscape:window-maximized="1"
     inkscape:current-layer="svg"
     inkscape:document-rotation="0" />
  <g
     id="svgg"
     transform="matrix(0.90541133,0,0,0.90488004,-164.44624,-166.17799)">
    <path
       id="path0"
       d="m 212.131,183.824 -1.869,0.305 0.233,14.462 c 0.228,14.148 0.195,14.487 -1.531,15.633 -2.426,1.611 -2.209,2.576 0.579,2.576 4.359,0 4.842,-1.338 5.004,-13.857 0.08,-6.239 0.17,-13.086 0.2,-15.217 0.059,-4.293 0.031,-4.335 -2.616,-3.902 m -28.469,5.576 c 1.119,2.97 2.395,6.66 2.835,8.2 5.379,18.82 9.578,17.612 16.684,-4.8 2.889,-9.111 2.868,-8.8 0.605,-8.8 -1.552,0 -2.147,0.953 -4.122,6.6 -6.426,18.368 -5.575,18.03 -10.566,4.2 -3.421,-9.479 -4.116,-10.8 -5.685,-10.8 h -1.787 l 2.036,5.4 m 19.871,-2.715 c -0.277,0.723 -0.838,1.315 -1.247,1.315 -0.408,0 -0.341,-0.75 0.151,-1.669 1.018,-1.903 1.858,-1.632 1.096,0.354 m 10.266,0.134 c 0.213,1.111 0.136,2.174 -0.17,2.363 -0.307,0.19 -0.463,3.781 -0.347,7.981 0.116,4.2 -0.047,7.637 -0.363,7.637 -0.316,0 -0.614,-4.113 -0.663,-9.14 -0.048,-5.028 -0.327,-9.528 -0.619,-10 -0.292,-0.473 -0.012,-0.86 0.623,-0.86 0.634,0 1.327,0.909 1.539,2.019 m -28.601,1.172 c 0.289,1.315 0.857,2.596 1.264,2.847 0.406,0.251 0.738,1.035 0.738,1.743 0,1.919 -0.973,0.585 -2.493,-3.418 -0.744,-1.96 -1.056,-3.563 -0.693,-3.563 0.362,0 0.895,1.076 1.184,2.391 m 16.493,4.753 c -0.603,0.372 -0.851,1.073 -0.552,1.557 0.345,0.559 0.078,0.702 -0.732,0.391 -1.152,-0.442 -1.156,-0.622 -0.04,-1.856 0.68,-0.751 1.112,-1.562 0.96,-1.801 -0.152,-0.239 0.114,-0.105 0.591,0.298 0.613,0.518 0.546,0.933 -0.227,1.411 m -11.651,9.482 c -0.665,0.665 -0.966,0.046 -1.469,-3.026 l -0.459,-2.8 1.184,2.693 c 0.652,1.481 0.986,2.891 0.744,3.133 m 9.206,-1.881 c -0.458,0.551 -0.595,1.239 -0.306,1.529 0.29,0.289 0.167,0.526 -0.273,0.526 -1.451,0 -1.787,-0.95 -0.86,-2.435 0.502,-0.804 1.219,-1.273 1.592,-1.042 0.373,0.231 0.304,0.871 -0.153,1.422 m -7.491,5.255 c 0.498,1.32 0.656,2.4 0.351,2.4 -0.305,0 -0.963,-1.08 -1.461,-2.4 -0.498,-1.32 -0.656,-2.4 -0.351,-2.4 0.305,0 0.963,1.08 1.461,2.4 m 21.845,3.953 c 0,0.854 -0.36,1.775 -0.8,2.047 -0.454,0.28 -0.8,-0.392 -0.8,-1.553 0,-1.126 0.36,-2.047 0.8,-2.047 0.44,0 0.8,0.699 0.8,1.553"
       stroke="none"
       fill="#000000"
       fill-rule="evenodd" />
  </g>
</svg>

<svg id="svg" version="1.1" xmlns="http://www.w3.org/2000/svg" xmlns:xlink="http://www.w3.org/1999/xlink" width="400" height="400" viewBox="0, 0, 400,400"><g id="svgg"><path id="path0" d="M212.131 183.824 L 210.262 184.129 210.495 198.591 C 210.723 212.739,210.690 213.078,208.964 214.224 C 206.538 215.835,206.755 216.800,209.543 216.800 C 213.902 216.800,214.385 215.462,214.547 202.943 C 214.627 196.704,214.717 189.857,214.747 187.726 C 214.806 183.433,214.778 183.391,212.131 183.824 M183.662 189.400 C 184.781 192.370,186.057 196.060,186.497 197.600 C 191.876 216.420,196.075 215.212,203.181 192.800 C 206.070 183.689,206.049 184.000,203.786 184.000 C 202.234 184.000,201.639 184.953,199.664 190.600 C 193.238 208.968,194.089 208.630,189.098 194.800 C 185.677 185.321,184.982 184.000,183.413 184.000 L 181.626 184.000 183.662 189.400 M203.533 186.685 C 203.256 187.408,202.695 188.000,202.286 188.000 C 201.878 188.000,201.945 187.250,202.437 186.331 C 203.455 184.428,204.295 184.699,203.533 186.685 M213.799 186.819 C 214.012 187.930,213.935 188.993,213.629 189.182 C 213.322 189.372,213.166 192.963,213.282 197.163 C 213.398 201.363,213.235 204.800,212.919 204.800 C 212.603 204.800,212.305 200.687,212.256 195.660 C 212.208 190.632,211.929 186.132,211.637 185.660 C 211.345 185.187,211.625 184.800,212.260 184.800 C 212.894 184.800,213.587 185.709,213.799 186.819 M185.198 187.991 C 185.487 189.306,186.055 190.587,186.462 190.838 C 186.868 191.089,187.200 191.873,187.200 192.581 C 187.200 194.500,186.227 193.166,184.707 189.163 C 183.963 187.203,183.651 185.600,184.014 185.600 C 184.376 185.600,184.909 186.676,185.198 187.991 M201.691 192.744 C 201.088 193.116,200.840 193.817,201.139 194.301 C 201.484 194.860,201.217 195.003,200.407 194.692 C 199.255 194.250,199.251 194.070,200.367 192.836 C 201.047 192.085,201.479 191.274,201.327 191.035 C 201.175 190.796,201.441 190.930,201.918 191.333 C 202.531 191.851,202.464 192.266,201.691 192.744 M190.040 202.226 C 189.375 202.891,189.074 202.272,188.571 199.200 L 188.112 196.400 189.296 199.093 C 189.948 200.574,190.282 201.984,190.040 202.226 M199.246 200.345 C 198.788 200.896,198.651 201.584,198.940 201.874 C 199.230 202.163,199.107 202.400,198.667 202.400 C 197.216 202.400,196.880 201.450,197.807 199.965 C 198.309 199.161,199.026 198.692,199.399 198.923 C 199.772 199.154,199.703 199.794,199.246 200.345 M191.755 205.600 C 192.253 206.920,192.411 208.000,192.106 208.000 C 191.801 208.000,191.143 206.920,190.645 205.600 C 190.147 204.280,189.989 203.200,190.294 203.200 C 190.599 203.200,191.257 204.280,191.755 205.600 M213.600 209.553 C 213.600 210.407,213.240 211.328,212.800 211.600 C 212.346 211.880,212.000 211.208,212.000 210.047 C 212.000 208.921,212.360 208.000,212.800 208.000 C 213.240 208.000,213.600 208.699,213.600 209.553 " stroke="none" fill="#000000" fill-rule="evenodd"></path></g></svg>
